icons/solid/translate.svg

<svg width="24" height="24" viewBox="0 0 24 24" fill="none" xmlns="http://www.w3.org/2000/svg">
<path fill-rule="evenodd" clip-rule="evenodd" d="M5 1C2.79086 1 1 2.79086 1 5V19C1 21.2091 2.79086 23 5 23H19C21.2091 23 23 21.2091 23 19V5C23 2.79086 21.2091 1 19 1H5ZM9 4C9 3.44772 8.55228 3 8 3C7.44772 3 7 3.44772 7 4V5H4C3.44772 5 3 5.44772 3 6C3 6.55228 3.44772 7 4 7H10.4318C10.2786 8.12481 9.87605 9.18438 9.3145 10.1266L7.75258 8.3415C7.3889 7.92586 6.75713 7.88374 6.3415 8.24742C5.92586 8.6111 5.88374 9.24287 6.24742 9.6585L8.08383 11.7573C6.69962 13.2312 5.10008 14 4 14C3.44772 14 3 14.4477 3 15C3 15.5523 3.44772 16 4 16C5.80613 16 7.82973 14.889 9.40603 13.2683L9.74742 13.6585C10.1111 14.0741 10.7429 14.1163 11.1585 13.7526C11.5741 13.3889 11.6163 12.7571 11.2526 12.3415L10.6864 11.6944C11.5937 10.3526 12.2592 8.75262 12.4466 7H14C14.5523 7 15 6.55228 15 6C15 5.44772 14.5523 5 14 5H9V4ZM16.8944 9.55279C16.725 9.214 16.3788 9 16 9C15.6212 9 15.275 9.214 15.1056 9.55279L12.1056 15.5528C12.0844 15.5951 12.0663 15.6389 12.0513 15.6838L11.0513 18.6838C10.8767 19.2077 11.1598 19.774 11.6838 19.9487C12.2077 20.1233 12.774 19.8402 12.9487 19.3162L13.7208 17H18.2792L19.0513 19.3162C19.226 19.8402 19.7923 20.1233 20.3162 19.9487C20.8402 19.774 21.1233 19.2077 20.9487 18.6838L19.9487 15.6838C19.9337 15.6389 19.9156 15.5951 19.8944 15.5528L16.8944 9.55279ZM16 12.2361L17.382 15H14.618L16 12.2361Z" fill="currentColor"/>
</svg>

<svg width="24" height="24" fill="none" xmlns="http://www.w3.org/2000/svg"><path fill-rule="evenodd" clip-rule="evenodd" d="M5 1a4 4 0 00-4 4v14a4 4 0 004 4h14a4 4 0 004-4V5a4 4 0 00-4-4H5zm4 3a1 1 0 00-2 0v1H4a1 1 0 000 2h6.432a8.323 8.323 0 01-1.117 3.127L7.753 8.34A1 1 0 106.247 9.66l1.837 2.098C6.7 13.231 5.1 14 4 14a1 1 0 100 2c1.806 0 3.83-1.111 5.406-2.732l.341.39a1 1 0 001.506-1.316l-.567-.648c.908-1.341 1.573-2.941 1.76-4.694H14a1 1 0 100-2H9V4zm7.894 5.553a1 1 0 00-1.788 0l-3 6a.998.998 0 00-.055.13l-1 3a1 1 0 001.898.633L13.72 17h4.558l.772 2.316a1 1 0 001.898-.632l-1-3a.998.998 0 00-.055-.131l-3-6zM16 12.236L17.382 15h-2.764L16 12.236z" fill="currentColor"/></svg>
